Numix/32/categories/preferences-desktop-accessibility.svg

<?xml version="1.0" encoding="UTF-8" standalone="no"?>
<!-- Created with Inkscape (http://www.inkscape.org/) -->

<svg
   xmlns:dc="http://purl.org/dc/elements/1.1/"
   xmlns:cc="http://creativecommons.org/ns#"
   xmlns:rdf="http://www.w3.org/1999/02/22-rdf-syntax-ns#"
   xmlns:svg="http://www.w3.org/2000/svg"
   xmlns="http://www.w3.org/2000/svg"
   xmlns:sodipodi="http://sodipodi.sourceforge.net/DTD/sodipodi-0.dtd"
   xmlns:inkscape="http://www.inkscape.org/namespaces/inkscape"
   version="1.0"
   width="32"
   height="32"
   id="svg3366"
   inkscape:version="0.91 r"
   sodipodi:docname="preferences-desktop-accessibility.svg">
  <metadata
     id="metadata30">
    <rdf:RDF>
      <cc:Work
         rdf:about="">
        <dc:format>image/svg+xml</dc:format>
        <dc:type
           rdf:resource="http://purl.org/dc/dcmitype/StillImage" />
        <dc:title />
      </cc:Work>
    </rdf:RDF>
  </metadata>
  <sodipodi:namedview
     pagecolor="#ffffff"
     bordercolor="#666666"
     borderopacity="1"
     objecttolerance="10"
     gridtolerance="10"
     guidetolerance="10"
     inkscape:pageopacity="0"
     inkscape:pageshadow="2"
     inkscape:window-width="1920"
     inkscape:window-height="1056"
     id="namedview28"
     showgrid="true"
     inkscape:zoom="5.6568543"
     inkscape:cx="6.9048056"
     inkscape:cy="-10.858509"
     inkscape:window-x="0"
     inkscape:window-y="24"
     inkscape:window-maximized="1"
     inkscape:current-layer="svg3366">
    <inkscape:grid
       type="xygrid"
       id="grid4158" />
  </sodipodi:namedview>
  <defs
     id="defs3368" />
  <path
     style="fill:#698ecc;fill-opacity:1;stroke:none;stroke-width:1.003654;stroke-linecap:round;stroke-linejoin:round;stroke-miterlimit:4;stroke-dasharray:none;stroke-dashoffset:0;stroke-opacity:1"
     d="M 16,3.0000001 C 8.8270484,3.0000001 3,8.8270479 3,16 3,23.172952 8.8270484,29.000002 16,29 23.172949,29 29.000006,23.172952 29,16 29,8.8270479 23.172949,3.0000001 16,3.0000001 Z m 0.09014,4.55 c 1.04434,0 1.891602,0.8665442 1.891602,1.9347653 0,1.0682166 -0.847262,1.9360356 -1.891602,1.9360356 -1.044338,0 -1.892871,-0.867818 -1.892871,-1.9360356 0,-1.0682204 0.848533,-1.9347653 1.892871,-1.9347653 z M 9.272758,11.508399 c 0.09768,0.0036 0.19772,0.02276 0.299609,0.04063 L 16,12.676371 22.454297,11.595999 c 0.08738,-0.01464 0.161323,-0.03885 0.248827,-0.05332 0.250414,-0.02846 0.49587,0.109178 0.585255,0.344042 0.08938,0.234837 7.15e-4,0.507043 -0.205665,0.65127 l -5.041308,1.743067 0.0025,3.698144 1.744336,5.643066 c 0.152158,0.265397 0.05934,0.602449 -0.206933,0.754102 -0.266271,0.151642 -0.605746,0.05974 -0.75791,-0.205665 l -2.813282,-6.054394 -2.869141,6.065821 C 12.969787,24.438037 12.605549,24.48985 12.348788,24.319241 12.092036,24.14866 12.040507,23.819738 12.21168,23.56387 l 1.777343,-5.618945 0.03427,-3.752734 L 8.9870996,12.5583 C 8.8037408,12.46224 8.6735939,12.284852 8.6760638,12.078418 c 0.00253,-0.206405 0.1253714,-0.423913 0.3110358,-0.51543 0.092829,-0.04576 0.1879674,-0.05819 0.2856434,-0.05459 z"
     id="path2555"
     inkscape:connector-curvature="0" />
</svg>

<!-- Created with Inkscape (http://www.inkscape.org/) -->
<svg xmlns="http://www.w3.org/2000/svg" viewBox="0 0 32 32">
 <path d="m 16 3 c -7.173 0 -13 5.827 -13 13 0 7.173 5.827 13 13 13 7.173 0 13 -5.827 13 -13 0 -7.173 -5.827 -13 -13 -13 m 0.09 4.55 c 1.044 0 1.892 0.867 1.892 1.935 0 1.068 -0.847 1.936 -1.892 1.936 -1.044 0 -1.893 -0.868 -1.893 -1.936 0 -1.068 0.849 -1.935 1.893 -1.935 z m -6.817 3.958 c 0.098 0.004 0.198 0.023 0.3 0.041 l 6.428 1.127 6.454 -1.08 c 0.087 -0.015 0.161 -0.039 0.249 -0.053 0.25 -0.028 0.496 0.109 0.585 0.344 0.089 0.235 0.001 0.507 -0.206 0.651 l -5.04 1.743 0.003 3.698 1.744 5.643 c 0.152 0.265 0.059 0.602 -0.207 0.754 -0.266 0.152 -0.606 0.06 -0.758 -0.206 l -2.813 -6.05 -2.869 6.07 c -0.171 0.256 -0.535 0.308 -0.792 0.137 -0.257 -0.171 -0.308 -0.5 -0.137 -0.755 l 1.777 -5.619 0.034 -3.753 l -5.04 -1.634 c -0.183 -0.096 -0.314 -0.273 -0.311 -0.48 c 0.003 -0.206 0.125 -0.424 0.311 -0.515 0.093 -0.046 0.188 -0.058 0.286 -0.055 z" style="fill:#698ecc;fill-opacity:1;stroke:none"/>
</svg>
